outputs/icons/social/very_satisfied_round.svg

<svg xmlns="http://www.w3.org/2000/svg" width="1200" height="1200" fill="none"><g clip-path="url(#a)"><path fill="#000" d="m444 497 26.5 26.5c14.5 14.5 38.5 14.5 53 0s14.5-38.5 0-53l-44-44c-19.5-19.5-51-19.5-70.5 0l-44.5 44c-14.5 14.5-14.5 38.5 0 53s38.5 14.5 53 0zm156 378c101.5 0 190-55.5 237.5-137.5 9.5-16.5-2.5-37.5-22-37.5h-431c-19 0-31.5 21-22 37.5C410 819.5 498.5 875 600 875m76.5-351.5c14.5 14.5 38.5 14.5 53 0L756 497l26.5 26.5c14.5 14.5 38.5 14.5 53 0s14.5-38.5 0-53l-44-44c-19.5-19.5-51-19.5-70.5 0l-44 44c-15 14.5-15 38.5-.5 53m-77-423.5C323.5 100 100 323.5 100 600s223.5 500 499.5 500S1100 876.5 1100 600 876 100 599.5 100m.5 900c-221 0-400-179-400-400s179-400 400-400 400 179 400 400-179 400-400 400"/></g><defs><clipPath id="a"><path fill="#fff" d="M0 0h1200v1200H0z"/></clipPath></defs></svg>

<svg width="1200" height="1200" viewBox="0 0 1200 1200" fill="none" xmlns="http://www.w3.org/2000/svg"><g clip-path="url(#clip0_231_5366)"><path d="M444 497L470.5 523.5C485 538 509 538 523.5 523.5C538 509 538 485 523.5 470.5L479.5 426.5C460 407 428.5 407 409 426.5L364.5 470.5C350 485 350 509 364.5 523.5C379 538 403 538 417.5 523.5L444 497ZM600 875C701.5 875 790 819.5 837.5 737.5C847 721 835 700 815.5 700H384.5C365.5 700 353 721 362.5 737.5C410 819.5 498.5 875 600 875ZM676.5 523.5C691 538 715 538 729.5 523.5L756 497L782.5 523.5C797 538 821 538 835.5 523.5C850 509 850 485 835.5 470.5L791.5 426.5C772 407 740.5 407 721 426.5L677 470.5C662 485 662 509 676.5 523.5ZM599.5 100C323.5 100 100 323.5 100 600C100 876.5 323.5 1100 599.5 1100C875.5 1100 1100 876.5 1100 600C1100 323.5 876 100 599.5 100ZM600 1000C379 1000 200 821 200 600C200 379 379 200 600 200C821 200 1000 379 1000 600C1000 821 821 1000 600 1000Z" fill="black"/></g><defs><clipPath id="clip0_231_5366"><path width="24" fill="white" d="M0 0H1200V1200H0V0z"/></clipPath></defs></svg>
